X:254
T: Waldvgelein (3-57), S. 166
N: P1029
O: Lothringen
S: PINCK, Louis: Verklingende Weisen, Bd3, Metz 1933]
R: verlorene Liebe]
M: 4/4
L: 1/8
K: G
GA | BBB2B2B2 | A2B2d2
cB | AAA2A2A2 | G2A2B2
GB | d2d2c2d2 | B3AB2
ce | d2d2c2dc | B4z2

